img/icons/general/stroller.svg

<svg xmlns="http://www.w3.org/2000/svg" viewBox="0 0 51.25 56.76"><path d="M38 39.08A20.14 20.14 0 0031.12 0h-.91v19.22h-17.4v-5.49H7.19a3.67 3.67 0 100 1.83H11v4.58a20.18 20.18 0 0013.34 19l5.47 5.12-3.19 3a5.49 5.49 0 101.78 4 5.28 5.28 0 00-.66-2.59l3.4-3.18 3.4 3.18a5.38 5.38 0 00-.65 2.59 5.5 5.5 0 101.78-4l-3.19-3zM3.66 16.48a1.84 1.84 0 111.84-1.84 1.84 1.84 0 01-1.84 1.84zm19.22 38.44a3.67 3.67 0 113.66-3.67 3.68 3.68 0 01-3.66 3.67zm16.47-7.32a3.67 3.67 0 11-3.66 3.66 3.66 3.66 0 013.66-3.66zm10-28.38H32V1.85a18.29 18.29 0 0117.37 17.37zm-36.51 1.84h36.53a18.29 18.29 0 01-36.53 0zM28 40a19.31 19.31 0 003.15.25 20.49 20.49 0 003.11-.25l-3.15 3z" data-name="Layer 2"/></svg>

<svg xmlns="http://www.w3.org/2000/svg" viewBox="0 0 51.25 56.76"><title>stroller</title><g id="Layer_2" data-name="Layer 2"><g id="Icons"><g id="Location"><path d="M38,39.08A20.14,20.14,0,0,0,31.12,0h-.91V19.22H12.81V13.73H7.19a3.67,3.67,0,1,0,0,1.83H11v4.58a20.18,20.18,0,0,0,13.34,19l0,0,5.47,5.12-3.19,3a5.49,5.49,0,1,0,1.78,4,5.28,5.28,0,0,0-.66-2.59l3.4-3.18,3.4,3.18a5.38,5.38,0,0,0-.65,2.59,5.5,5.5,0,1,0,1.78-4l-3.19-3ZM3.66,16.48A1.84,1.84,0,1,1,5.5,14.64,1.84,1.84,0,0,1,3.66,16.48ZM22.88,54.92a3.67,3.67,0,1,1,3.66-3.67A3.68,3.68,0,0,1,22.88,54.92ZM39.35,47.6a3.67,3.67,0,1,1-3.66,3.66A3.66,3.66,0,0,1,39.35,47.6Zm10-28.38H32V1.85A18.29,18.29,0,0,1,49.37,19.22ZM12.84,21.06H49.37a18.29,18.29,0,0,1-36.53,0ZM28,40a19.31,19.31,0,0,0,3.15.25A20.49,20.49,0,0,0,34.26,40L31.11,43Z"/></g></g></g></svg>
